icons/svg/shields/h_barrier_stile_shield.svg

<?xml version="1.0" encoding="UTF-8" standalone="no"?>
<!-- Created with Inkscape (http://www.inkscape.org/) -->

<svg
   xmlns:dc="http://purl.org/dc/elements/1.1/"
   xmlns:cc="http://creativecommons.org/ns#"
   xmlns:rdf="http://www.w3.org/1999/02/22-rdf-syntax-ns#"
   xmlns:svg="http://www.w3.org/2000/svg"
   xmlns="http://www.w3.org/2000/svg"
   xmlns:sodipodi="http://sodipodi.sourceforge.net/DTD/sodipodi-0.dtd"
   xmlns:inkscape="http://www.inkscape.org/namespaces/inkscape"
   version="1.0"
   width="16"
   height="16"
   id="svg2"
   sodipodi:version="0.32"
   inkscape:version="0.91 r13725"
   sodipodi:docname="h_barrier_stile_shield.svg"
   inkscape:output_extension="org.inkscape.output.svg.inkscape">
  <metadata
     id="metadata10">
    <rdf:RDF>
      <cc:Work
         rdf:about="">
        <dc:format>image/svg+xml</dc:format>
        <dc:type
           rdf:resource="http://purl.org/dc/dcmitype/StillImage" />
        <cc:license
           rdf:resource="http://web.resource.org/cc/PublicDomain" />
        <dc:language>en</dc:language>
        <dc:title />
      </cc:Work>
    </rdf:RDF>
  </metadata>
  <sodipodi:namedview
     inkscape:window-height="1006"
     inkscape:window-width="1920"
     inkscape:pageshadow="2"
     inkscape:pageopacity="0.0"
     guidetolerance="10.0"
     gridtolerance="10.0"
     objecttolerance="10.0"
     borderopacity="1.0"
     bordercolor="#666666"
     pagecolor="#ffffff"
     id="base"
     showgrid="false"
     inkscape:zoom="32"
     inkscape:cx="3.483056"
     inkscape:cy="9.2218069"
     inkscape:window-x="1920"
     inkscape:window-y="0"
     inkscape:current-layer="svg2"
     inkscape:window-maximized="1" />
  <defs
     id="defs4">
    <inkscape:perspective
       sodipodi:type="inkscape:persp3d"
       inkscape:vp_x="0 : 290 : 1"
       inkscape:vp_y="0 : 1000 : 0"
       inkscape:vp_z="580 : 290 : 1"
       inkscape:persp3d-origin="290 : 193.33333 : 1"
       id="perspective12" />
    <style
       type="text/css"
       id="style6">
   
    .fil0 {fill:#EF7900}
   
  </style>
    <inkscape:perspective
       id="perspective6807"
       inkscape:persp3d-origin="29.116032 : 19.410688 : 1"
       inkscape:vp_z="58.232063 : 29.116032 : 1"
       inkscape:vp_y="0 : 1000 : 0"
       inkscape:vp_x="0 : 29.116032 : 1"
       sodipodi:type="inkscape:persp3d" />
    <inkscape:perspective
       id="perspective6954"
       inkscape:persp3d-origin="290 : 193.33333 : 1"
       inkscape:vp_z="580 : 290 : 1"
       inkscape:vp_y="0 : 1000 : 0"
       inkscape:vp_x="0 : 290 : 1"
       sodipodi:type="inkscape:persp3d" />
    <inkscape:perspective
       id="perspective2541"
       inkscape:persp3d-origin="240 : 160 : 1"
       inkscape:vp_z="480 : 240 : 1"
       inkscape:vp_y="0 : 1000 : 0"
       inkscape:vp_x="0 : 240 : 1"
       sodipodi:type="inkscape:persp3d" />
    <inkscape:perspective
       id="perspective2750"
       inkscape:persp3d-origin="215 : 143.33333 : 1"
       inkscape:vp_z="430 : 215 : 1"
       inkscape:vp_y="0 : 1000 : 0"
       inkscape:vp_x="0 : 215 : 1"
       sodipodi:type="inkscape:persp3d" />
    <inkscape:perspective
       id="perspective3730"
       inkscape:persp3d-origin="88.929146 : 101.19778 : 1"
       inkscape:vp_z="177.85829 : 151.79668 : 1"
       inkscape:vp_y="0 : 1000 : 0"
       inkscape:vp_x="0 : 151.79668 : 1"
       sodipodi:type="inkscape:persp3d" />
  </defs>
  <path
     style="color:#000000;font-style:normal;font-variant:normal;font-weight:normal;font-stretch:normal;font-size:medium;line-height:normal;font-family:'Bitstream Vera Sans';-inkscape-font-specification:'Bitstream Vera Sans';text-indent:0;text-align:start;text-decoration:none;text-decoration-line:none;letter-spacing:normal;word-spacing:normal;text-transform:none;direction:ltr;block-progression:tb;writing-mode:lr-tb;text-anchor:start;clip-rule:nonzero;display:inline;overflow:visible;visibility:visible;opacity:0.81199999;isolation:auto;mix-blend-mode:normal;color-interpolation:sRGB;color-interpolation-filters:linearRGB;solid-color:#000000;solid-opacity:1;fill:#ebe7e4;fill-opacity:1;fill-rule:nonzero;stroke:none;stroke-width:0.78325456;stroke-linecap:butt;stroke-linejoin:miter;stroke-miterlimit:4;stroke-dasharray:none;stroke-dashoffset:0;stroke-opacity:1;marker:none;color-rendering:auto;image-rendering:auto;shape-rendering:auto;text-rendering:auto;enable-background:accumulate"
     d="m 3.4929938,3.6492099 c -0.3068661,0.00425 -0.6393428,0.094606 -0.9375625,0.4018125 -0.2675269,0.275616 -0.379954,0.560308 -0.375025,0.910775 l 0,0.10715 c -0.1143818,0.067494 -0.2825772,0.069595 -0.375025,0.160725 -0.2656258,0.2619004 -0.4286,0.6619841 -0.4286,0.9911375 0,0.3292732 0.1156572,0.7092761 0.4286,1.017925 0.1138344,0.112238 0.2460777,0.098777 0.375025,0.160725 l 0,0.6161125 c -0.1257672,0.061673 -0.2640635,0.051345 -0.375025,0.160725 -0.3130935,0.3087023 -0.4286,0.6887716 -0.4286,1.017925 0,0.3292732 0.1156572,0.7092764 0.4286,1.0179246 0.1138286,0.112233 0.2460766,0.09877 0.375025,0.160725 l 0,0.508963 0,0.482175 0,0.455387 a 0.81896502,0.81896502 0 0 0 0.8304125,0.830413 l 0.96435,0 a 0.81896502,0.81896502 0 0 0 0.8304125,-0.830413 l 0,-0.455387 0,-0.482175 0,-0.267875 1.232225,0 0,0.241087 a 0.81896502,0.81896502 0 0 0 -0.803625,0.830413 l 0,1.17865 a 0.81896502,0.81896502 0 0 0 0.8304124,0.830412 l 0.5893251,0 3.32165,0 0.5893252,0 a 0.81896502,0.81896502 0 0 0 0.830412,-0.830412 l 0,-1.17865 a 0.81896502,0.81896502 0 0 0 -0.830412,-0.830413 l -0.05358,0 0,-0.241087 1.044712,0 0,0.267875 0,0.482175 0,0.455387 a 0.81896502,0.81896502 0 0 0 0.830413,0.830413 l 0.937562,0 a 0.81896502,0.81896502 0 0 0 0.830413,-0.830413 l 0,-0.455387 0,-0.482175 0,-0.53575 c 0.105974,-0.05822 0.226719,-0.04055 0.32145,-0.133938 0.313093,-0.3087022 0.4286,-0.6887712 0.4286,-1.0179246 0,-0.3290035 -0.115319,-0.709156 -0.4286,-1.017925 -0.09716,-0.095794 -0.212772,-0.075219 -0.32145,-0.1339375 l 0,-0.6696875 c 0.105974,-0.05822 0.226719,-0.040558 0.32145,-0.1339375 0.313093,-0.3087023 0.4286,-0.6887716 0.4286,-1.017925 0,-0.3290035 -0.162795,-0.729161 -0.4286,-0.9911375 -0.08092,-0.07978 -0.224288,-0.071873 -0.32145,-0.1339375 l 0,-0.1339375 c 0.0045,-0.3343462 -0.09797,-0.6610135 -0.375025,-0.9375625 -0.275189,-0.2747658 -0.600249,-0.3802955 -0.937563,-0.375025 -0.308503,0.00428 -0.671592,0.1553978 -0.910775,0.4018125 -0.221604,0.2283049 -0.29358,0.4724434 -0.32145,0.75005 l -6.8843872,0 C 4.6781413,4.4789915 4.5843553,4.2044922 4.4037687,4.0242349 4.1865655,3.807386 3.8284892,3.6439681 3.4929938,3.6492099 Z m 1.3125875,3.9913375 6.7504497,0 0,0.1339375 -6.7504497,0 0,-0.1339375 z"
     id="path4598"
     inkscape:connector-curvature="0" />
</svg>

<svg width="16" height="16" viewBox="0 0 16 16" fill="none" xmlns="http://www.w3.org/2000/svg">
<path opacity="0.812" d="M3.493 3.6492C3.18613 3.65345 2.85366 3.74381 2.55544 4.05102C2.28791 4.32663 2.17548 4.61132 2.18041 4.96179V5.06894C2.06603 5.13644 1.89783 5.13854 1.80539 5.22967C1.53976 5.49157 1.37679 5.89165 1.37679 6.2208C1.37679 6.55008 1.49244 6.93008 1.80539 7.23873C1.91922 7.35097 2.05146 7.33751 2.18041 7.39945V8.01557C2.05464 8.07724 1.91635 8.06691 1.80539 8.17629C1.49229 8.48499 1.37679 8.86506 1.37679 9.19422C1.37679 9.52349 1.49244 9.90349 1.80539 10.2121C1.91921 10.3244 2.05146 10.3109 2.18041 10.3729V10.8818V11.364V11.8194C2.17887 11.9289 2.1993 12.0375 2.24048 12.139C2.28167 12.2404 2.34278 12.3326 2.4202 12.41C2.49762 12.4874 2.58978 12.5485 2.69122 12.5897C2.79267 12.6309 2.90134 12.6513 3.01082 12.6498H3.97517C4.08465 12.6513 4.19333 12.6309 4.29477 12.5897C4.39622 12.5485 4.48838 12.4874 4.5658 12.41C4.64322 12.3326 4.70433 12.2404 4.74551 12.139C4.7867 12.0375 4.80713 11.9289 4.80558 11.8194V11.364V10.8818V10.614H6.03781V10.855C5.82128 10.8591 5.61516 10.9487 5.46456 11.1043C5.31395 11.26 5.23112 11.4689 5.23419 11.6855V12.8641C5.23264 12.9736 5.25307 13.0823 5.29426 13.1837C5.33544 13.2851 5.39655 13.3773 5.47397 13.4547C5.55139 13.5321 5.64355 13.5933 5.745 13.6344C5.84644 13.6756 5.95512 13.6961 6.0646 13.6945H6.65392H9.97557H10.5649C10.6744 13.6961 10.7831 13.6756 10.8845 13.6344C10.9859 13.5933 11.0781 13.5321 11.1555 13.4547C11.2329 13.3773 11.2941 13.2851 11.3352 13.1837C11.3764 13.0823 11.3969 12.9736 11.3953 12.8641V11.6855C11.3969 11.576 11.3764 11.4673 11.3352 11.3659C11.2941 11.2644 11.2329 11.1723 11.1555 11.0948C11.0781 11.0174 10.9859 10.9563 10.8845 10.9151C10.7831 10.8739 10.6744 10.8535 10.5649 10.855H10.5113V10.614H11.556V10.8818V11.364V11.8194C11.5545 11.9289 11.5749 12.0375 11.6161 12.139C11.6573 12.2404 11.7184 12.3326 11.7958 12.41C11.8732 12.4874 11.9654 12.5485 12.0668 12.5897C12.1683 12.6309 12.277 12.6513 12.3864 12.6498H13.324C13.4335 12.6513 13.5422 12.6309 13.6436 12.5897C13.7451 12.5485 13.8372 12.4874 13.9146 12.41C13.9921 12.3326 14.0532 12.2404 14.0943 12.139C14.1355 12.0375 14.156 11.9289 14.1544 11.8194V11.364V10.8818V10.3461C14.2604 10.2879 14.3811 10.3055 14.4759 10.2121C14.789 9.90344 14.9045 9.52337 14.9045 9.19422C14.9045 8.86521 14.7891 8.48506 14.4759 8.17629C14.3787 8.0805 14.2631 8.10107 14.1544 8.04236V7.37267C14.2604 7.31445 14.3811 7.33211 14.4759 7.23873C14.789 6.93003 14.9045 6.54996 14.9045 6.2208C14.9045 5.8918 14.7417 5.49164 14.4759 5.22967C14.3949 5.14989 14.2516 5.15779 14.1544 5.09573V4.96179C14.1589 4.62745 14.0564 4.30078 13.7794 4.02423C13.5042 3.74946 13.1791 3.64393 12.8418 3.6492C12.5333 3.65348 12.1702 3.8046 11.9311 4.05102C11.7095 4.27932 11.6375 4.52346 11.6096 4.80107H4.72522C4.67815 4.47899 4.58436 4.20449 4.40377 4.02423C4.18657 3.80738 3.82849 3.64396 3.493 3.6492ZM4.80558 7.64054H11.556V7.77448H4.80558V7.64054V7.64054Z" fill="#EBE7E4"/>
</svg>
